X: 021
T: Lady Minto's Favourite
C: by John Pringle
B: John Pringle "Collection of Reels Strathspeys & Jigs", 1801 p.2#1
Z: 2011 John Chambers <jc:trillian.mit.edu>
R: jig
Q: "Slow"
M: 6/8
L: 1/8
K: A
V: 1
|:\
A3 (AG).F | (FE).E ~E3 | A3 (AG).A | cBB (B/e/)(d/c/)d/B/ |\
(Ac).B AGF | (FE)~.E ECA, | .D.F.A ECA, | {C}B,.A,.B, A,3 :|
|:\
A3 (ec).A | {G}~F3 dBG | Ace FGA | (Bc).A (A/G/).F/.E/.D/.C/ |\
~f3 ecA | ~d3 cAF | ~B>cd EFG | [AC][AC][AC] [A3C3] :|
%
V: 2 clef=bass middle=d
|:\
Ace fdc | dcc cAc | zAB cBA | Eee e2z | ced cBA | dcc c3 | d2f a2c | e2E A3 :|
|:\
Ace A3 | dfa e3 | a3 d2b | d2^d e2z | dfd a3 | bg^e f3 | d3 e2E | Ace a3 :|

%%sep 2 1 500

